public/images/bgcomputer.svg

<svg width="85" height="85" viewBox="0 0 85 85" fill="none" xmlns="http://www.w3.org/2000/svg">
<g clip-path="url(#clip0_347_1429)">
<g filter="url(#filter0_d_347_1429)">
<path d="M48.6744 70.9746L25.5018 66.1641C24.9774 66.0553 24.4923 65.8062 24.0984 65.4433C23.7045 65.0805 23.4164 64.6175 23.265 64.1038C23.1136 63.59 23.1045 63.0448 23.2387 62.5263C23.3729 62.0078 23.6453 61.5354 24.0269 61.1596L39.2211 46.1854C39.5789 45.8684 40.0057 45.6392 40.4677 45.5162C40.9296 45.3932 41.4139 45.3797 41.882 45.4769C42.3501 45.5741 42.789 45.7792 43.1638 46.0759C43.5386 46.3726 43.839 46.7527 44.041 47.186L52.0194 66.9707C52.2199 67.4674 52.2818 68.0092 52.1985 68.5382C52.1152 69.0673 51.8898 69.5638 51.5465 69.9748C51.2031 70.3859 50.7546 70.696 50.2487 70.872C49.7429 71.0481 49.1988 71.0836 48.6744 70.9746Z" fill="url(#paint0_linear_347_1429)"/>
</g>
<g filter="url(#filter1_bii_347_1429)">
<path d="M68.1878 20.6401L27.6358 12.2217C22.8366 11.2254 18.1384 14.3082 17.1421 19.1075L11.7303 45.1766C10.734 49.9758 13.8168 54.674 18.616 55.6703L59.1681 64.0887C63.9673 65.085 68.6655 62.0022 69.6618 57.203L75.0736 31.1338C76.0699 26.3346 72.9871 21.6364 68.1878 20.6401Z" fill="white" fill-opacity="0.2"/>
</g>
</g>
<defs>
<filter id="filter0_d_347_1429" x="21.1443" y="43.4128" width="33.0903" height="29.6235" filterUnits="userSpaceOnUse" color-interpolation-filters="sRGB">
<feFlood flood-opacity="0" result="BackgroundImageFix"/>
<feColorMatrix in="SourceAlpha" type="matrix" values="0 0 0 0 0 0 0 0 0 0 0 0 0 0 0 0 0 0 127 0" result="hardAlpha"/>
<feOffset/>
<feGaussianBlur stdDeviation="1"/>
<feComposite in2="hardAlpha" operator="out"/>
<feColorMatrix type="matrix" values="0 0 0 0 0.12549 0 0 0 0 0.447059 0 0 0 0 0.996078 0 0 0 0.5 0"/>
<feBlend mode="normal" in2="BackgroundImageFix" result="effect1_dropShadow_347_1429"/>
<feBlend mode="normal" in="SourceGraphic" in2="effect1_dropShadow_347_1429" result="shape"/>
</filter>
<filter id="filter1_bii_347_1429" x="7.54321" y="8.03467" width="71.7175" height="60.2412" filterUnits="userSpaceOnUse" color-interpolation-filters="sRGB">
<feFlood flood-opacity="0" result="BackgroundImageFix"/>
<feGaussianBlur in="BackgroundImageFix" stdDeviation="2"/>
<feComposite in2="SourceAlpha" operator="in" result="effect1_backgroundBlur_347_1429"/>
<feBlend mode="normal" in="SourceGraphic" in2="effect1_backgroundBlur_347_1429" result="shape"/>
<feColorMatrix in="SourceAlpha" type="matrix" values="0 0 0 0 0 0 0 0 0 0 0 0 0 0 0 0 0 0 127 0" result="hardAlpha"/>
<feOffset dy="-4"/>
<feGaussianBlur stdDeviation="2"/>
<feComposite in2="hardAlpha" operator="arithmetic" k2="-1" k3="1"/>
<feColorMatrix type="matrix" values="0 0 0 0 1 0 0 0 0 1 0 0 0 0 1 0 0 0 0.05 0"/>
<feBlend mode="normal" in2="shape" result="effect2_innerShadow_347_1429"/>
<feColorMatrix in="SourceAlpha" type="matrix" values="0 0 0 0 0 0 0 0 0 0 0 0 0 0 0 0 0 0 127 0" result="hardAlpha"/>
<feOffset dx="-4" dy="-4"/>
<feGaussianBlur stdDeviation="2"/>
<feComposite in2="hardAlpha" operator="arithmetic" k2="-1" k3="1"/>
<feColorMatrix type="matrix" values="0 0 0 0 1 0 0 0 0 1 0 0 0 0 1 0 0 0 0.05 0"/>
<feBlend mode="normal" in2="effect2_innerShadow_347_1429" result="effect3_innerShadow_347_1429"/>
</filter>
<linearGradient id="paint0_linear_347_1429" x1="41.882" y1="45.4769" x2="37.0881" y2="68.5694" gradientUnits="userSpaceOnUse">
<stop offset="0.451042" stop-color="white"/>
<stop offset="1" stop-color="white"/>
</linearGradient>
<clipPath id="clip0_347_1429">
<rect width="71" height="71" fill="white" transform="translate(14.9568 0.525391) rotate(11.7278)"/>
</clipPath>
</defs>
</svg>

<svg width="85" height="85" fill="none" xmlns="http://www.w3.org/2000/svg"><g clip-path="url(#a)"><g filter="url(#b)"><path d="m48.674 70.975-23.172-4.81a2.958 2.958 0 0 1-1.475-5.005L39.22 46.185a3.071 3.071 0 0 1 4.82 1.001l7.978 19.785a2.958 2.958 0 0 1-3.345 4.004Z" fill="url(#c)"/></g><g filter="url(#d)"><path d="m68.188 20.64-40.552-8.418a8.875 8.875 0 0 0-10.494 6.886L11.73 45.177a8.875 8.875 0 0 0 6.886 10.493l40.552 8.419a8.875 8.875 0 0 0 10.494-6.886l5.412-26.07a8.875 8.875 0 0 0-6.886-10.493Z" fill="#fff" fill-opacity=".2"/></g></g><defs><filter id="b" x="21.144" y="43.413" width="33.09" height="29.623" filterUnits="userSpaceOnUse" color-interpolation-filters="sRGB"><feFlood flood-opacity="0" result="BackgroundImageFix"/><feColorMatrix in="SourceAlpha" values="0 0 0 0 0 0 0 0 0 0 0 0 0 0 0 0 0 0 127 0" result="hardAlpha"/><feOffset/><feGaussianBlur stdDeviation="1"/><feComposite in2="hardAlpha" operator="out"/><feColorMatrix values="0 0 0 0 0.12549 0 0 0 0 0.447059 0 0 0 0 0.996078 0 0 0 0.5 0"/><feBlend in2="BackgroundImageFix" result="effect1_dropShadow_347_1429"/><feBlend in="SourceGraphic" in2="effect1_dropShadow_347_1429" result="shape"/></filter><filter id="d" x="7.543" y="8.035" width="71.718" height="60.241" filterUnits="userSpaceOnUse" color-interpolation-filters="sRGB"><feFlood flood-opacity="0" result="BackgroundImageFix"/><feGaussianBlur in="BackgroundImageFix" stdDeviation="2"/><feComposite in2="SourceAlpha" operator="in" result="effect1_backgroundBlur_347_1429"/><feBlend in="SourceGraphic" in2="effect1_backgroundBlur_347_1429" result="shape"/><feColorMatrix in="SourceAlpha" values="0 0 0 0 0 0 0 0 0 0 0 0 0 0 0 0 0 0 127 0" result="hardAlpha"/><feOffset dy="-4"/><feGaussianBlur stdDeviation="2"/><feComposite in2="hardAlpha" operator="arithmetic" k2="-1" k3="1"/><feColorMatrix values="0 0 0 0 1 0 0 0 0 1 0 0 0 0 1 0 0 0 0.05 0"/><feBlend in2="shape" result="effect2_innerShadow_347_1429"/><feColorMatrix in="SourceAlpha" values="0 0 0 0 0 0 0 0 0 0 0 0 0 0 0 0 0 0 127 0" result="hardAlpha"/><feOffset dx="-4" dy="-4"/><feGaussianBlur stdDeviation="2"/><feComposite in2="hardAlpha" operator="arithmetic" k2="-1" k3="1"/><feColorMatrix values="0 0 0 0 1 0 0 0 0 1 0 0 0 0 1 0 0 0 0.05 0"/><feBlend in2="effect2_innerShadow_347_1429" result="effect3_innerShadow_347_1429"/></filter><linearGradient id="c" x1="41.882" y1="45.477" x2="37.088" y2="68.569" gradientUnits="userSpaceOnUse"><stop offset=".451" stop-color="#fff"/><stop offset="1" stop-color="#fff"/></linearGradient><clipPath id="a"><path fill="#fff" transform="rotate(11.728 4.92 73.078)" d="M0 0h71v71H0z"/></clipPath></defs></svg>
